X:189
T:Drummer’s Rant, The TS.189
M:6/8
L:1/8
Q:3/8=110
S:Thomas Sands’ MS,1810,Lincolnshire
R:jig
N:No key sig in MS
O:England;Lincolnshire
Z:vmp.Ruairidh Greig, 2011
K:Bb
F|Bdf Bdf|eggg2b/g/|fdB BAB|dccc2F|
Bdf Bdf|egg gab|fdB ecf|dBBB2:|
|:f/e/|dfB AcF|dfB AcF|bag fed|eccc2d/e/|
fdd gee|aff bgg|fe/d/c/B/ Acf/e/|dBBB2:|]

